svgs/touch_the_notch.svg

<svg width="192" height="192" viewBox="0 0 192 192" fill="none" xmlns="http://www.w3.org/2000/svg">
<path d="M145 100V28C145 24.6863 142.314 22 139 22H53C49.6863 22 47 24.6863 47 28V114" stroke="black" stroke-width="12" stroke-linecap="round" stroke-linejoin="round"/>
<path d="M112.301 105.196L115.789 105.91L138.88 117.323C142.756 118.585 145.303 122.371 144.971 126.432V127.858L139.987 161.44C139.655 163.799 138.603 165.994 136.665 167.531C134.948 169.177 132.678 170 130.297 170H92.2007C89.4874 170 86.9956 169.012 85.1683 167.092L52 134.333L56.9836 128.846C58.3125 127.474 60.4167 126.706 62.4101 126.816H64.0159L85.9989 131.59V73.9744C85.9989 71.0638 87.1657 68.2724 89.2426 66.2143C91.3195 64.1562 94.1363 63 97.0735 63C100.011 63 102.827 64.1562 104.904 66.2143C106.981 68.2724 108.148 71.0638 108.148 73.9744V105.196H112.301Z" stroke="black" stroke-width="12" stroke-linejoin="round"/>
<circle cx="96" cy="41" r="4" stroke="black" stroke-width="8"/>
</svg>

<svg xmlns="http://www.w3.org/2000/svg" width="192" height="192" fill="none" viewBox="0 0 192 192"><path stroke="#000" stroke-linecap="round" stroke-linejoin="round" stroke-width="12" d="M145 100V28a6 6 0 0 0-6-6H53a6 6 0 0 0-6 6v86"/><path stroke="#000" stroke-linejoin="round" stroke-width="12" d="m112.301 105.196 3.488.714 23.091 11.413c3.876 1.262 6.423 5.048 6.091 9.109v1.426l-4.984 33.582c-.332 2.359-1.384 4.554-3.322 6.091-1.717 1.646-3.987 2.469-6.368 2.469H92.201c-2.714 0-5.205-.988-7.033-2.908L52 134.333l4.984-5.487c1.328-1.372 3.433-2.14 5.426-2.03h1.606l21.983 4.774V73.974c0-2.91 1.167-5.702 3.244-7.76A11.13 11.13 0 0 1 97.073 63c2.938 0 5.754 1.156 7.831 3.214a10.92 10.92 0 0 1 3.244 7.76v31.222z"/><circle cx="96" cy="41" r="4" stroke="#000" stroke-width="8"/></svg>
